img/ico/magnifying-glass.svg

<svg width="60" height="60" viewBox="0 0 60 60" fill="none" xmlns="http://www.w3.org/2000/svg">
<g clip-path="url(#clip0_6003_6911)">
<mask id="mask0_6003_6911" style="mask-type:luminance" maskUnits="userSpaceOnUse" x="0" y="0" width="60" height="60">
<path d="M60 0H0V60H60V0Z" fill="white"/>
</mask>
<g mask="url(#mask0_6003_6911)">
<path d="M33.1859 10.9156C27.0461 4.77595 17.0563 4.77608 10.9167 10.9156C7.94258 13.8898 6.30469 17.844 6.30469 22.0502C6.30469 26.2563 7.94258 30.2105 10.9167 33.1847C13.9868 36.2549 18.0184 37.7894 22.0513 37.7894C26.0833 37.7894 30.1165 36.2542 33.1859 33.1847C36.1601 30.2105 37.798 26.2563 37.798 22.0502C37.798 17.844 36.1601 13.8897 33.1859 10.9156ZM31.6989 31.6977C26.3794 37.0174 17.7234 37.0172 12.4037 31.6977C9.82678 29.1207 8.40759 25.6944 8.40759 22.0501C8.40759 18.4056 9.82678 14.9795 12.4037 12.4025C15.0637 9.74274 18.5575 8.41279 22.0513 8.41279C25.5452 8.41279 29.0391 9.74274 31.6989 12.4025C34.2759 14.9795 35.6951 18.4056 35.6951 22.0501C35.6951 25.6944 34.2759 29.1207 31.6989 31.6977Z" fill="#DC3545"/>
<path d="M22.0514 9.5979C21.4708 9.5979 21 10.0687 21 10.6494C21 11.23 21.4708 11.7008 22.0514 11.7008C27.758 11.7008 32.4008 16.3435 32.4008 22.0502C32.4008 22.6309 32.8716 23.1017 33.4523 23.1017C34.033 23.1017 34.5038 22.6309 34.5038 22.0502C34.5038 15.1839 28.9177 9.5979 22.0514 9.5979Z" fill="#DC3545"/>
<path d="M57.921 47.8715L41.8434 31.794C43.3204 28.8008 44.1021 25.4857 44.1021 22.0502C44.1021 16.1604 41.8085 10.6232 37.6437 6.45841C33.4791 2.29361 27.9419 0 22.052 0C16.1622 0 10.625 2.29361 6.46036 6.45827C2.29556 10.6231 0.00195312 16.1603 0.00195312 22.0501C0.00195312 27.9399 2.29556 33.4771 6.46036 37.6418C10.625 41.8066 16.1622 44.1002 22.052 44.1002C25.4876 44.1002 28.8026 43.3185 31.7958 41.8416L47.8733 57.919C49.2152 59.261 50.9994 60 52.8973 60C54.7949 60 56.5792 59.261 57.9211 57.919C60.691 55.1489 60.691 50.6417 57.921 47.8715ZM9.24841 34.8539C5.82843 31.4339 3.94489 26.8868 3.94489 22.0502C3.94489 17.2136 5.82843 12.6666 9.24841 9.24646C12.6683 5.82648 17.2153 3.94294 22.052 3.94294C26.8886 3.94294 31.4357 5.82648 34.8557 9.24646C38.2756 12.6664 40.1592 17.2136 40.1592 22.0501C40.1592 26.8867 38.2758 31.4338 34.8557 34.8538C31.4357 38.2737 26.8886 40.1573 22.052 40.1573C17.2153 40.1573 12.6683 38.2739 9.24841 34.8539ZM55.1329 55.131C54.5357 55.7282 53.7417 56.0571 52.8971 56.0571C52.0525 56.0571 51.2586 55.7282 50.6613 55.131L35.2492 39.7188C36.0882 39.0894 36.8888 38.3969 37.6437 37.6419C38.3987 36.887 39.0912 36.0865 39.7206 35.2474L55.1328 50.6596C56.3656 51.8923 56.3656 53.8983 55.1329 55.131Z" fill="#DC3545"/>
</g>
</g>
<defs>
<clipPath id="clip0_6003_6911">
<rect width="60" height="60" fill="white"/>
</clipPath>
</defs>
</svg>

<svg width="60" height="60" viewBox="0 0 60 60" fill="currentColor" xmlns="http://www.w3.org/2000/svg" class="svg-icon">
    <path
        d="M33.186 10.916c-6.14-6.14-16.13-6.14-22.27 0A15.64 15.64 0 0 0 6.306 22.05c0 4.206 1.638 8.16 4.612 11.135a15.7 15.7 0 0 0 11.134 4.604c4.032 0 8.066-1.535 11.135-4.604a15.64 15.64 0 0 0 4.612-11.135c0-4.206-1.638-8.16-4.612-11.134m-1.487 20.782c-5.32 5.32-13.976 5.32-19.295 0a13.56 13.56 0 0 1-3.996-9.648c0-3.644 1.419-7.07 3.996-9.647a13.6 13.6 0 0 1 9.647-3.99c3.494 0 6.988 1.33 9.648 3.99a13.55 13.55 0 0 1 3.996 9.647c0 3.644-1.42 7.07-3.996 9.648" />
    <path
        d="M22.051 9.598a1.052 1.052 0 0 0 0 2.103c5.707 0 10.35 4.642 10.35 10.35a1.052 1.052 0 0 0 2.103 0c0-6.867-5.586-12.453-12.453-12.453" />
    <path
        d="M57.921 47.872 41.843 31.793a21.96 21.96 0 0 0 2.26-9.744c0-5.89-2.294-11.427-6.46-15.592A21.9 21.9 0 0 0 22.053 0 21.9 21.9 0 0 0 6.46 6.458 21.9 21.9 0 0 0 .002 22.05c0 5.89 2.294 11.427 6.458 15.592A21.9 21.9 0 0 0 22.052 44.1c3.436 0 6.75-.782 9.744-2.258l16.077 16.077A7.06 7.06 0 0 0 52.897 60a7.06 7.06 0 0 0 5.024-2.081 7.113 7.113 0 0 0 0-10.047M9.248 34.854A18 18 0 0 1 3.945 22.05 18 18 0 0 1 9.248 9.246a17.99 17.99 0 0 1 12.804-5.303c4.837 0 9.384 1.883 12.804 5.303a18 18 0 0 1 5.303 12.804c0 4.837-1.883 9.384-5.303 12.804a18 18 0 0 1-12.804 5.303 17.99 17.99 0 0 1-12.804-5.303M55.133 55.13a3.14 3.14 0 0 1-2.236.926 3.14 3.14 0 0 1-2.236-.926L35.25 39.719a22.4 22.4 0 0 0 4.472-4.472L55.133 50.66a3.165 3.165 0 0 1 0 4.471" />
</svg>
